X: 385
T: Tingfang diao
%%abc-version 2.0
%%abcx-abcm2ps-target-version 5.9.1 (29 Sep 2008)
%%abc-creator hum2abc beta
%%abcx-conversion-date 2013/10/02 07:52:30
%%abc-edited-by Helmut Schaffrath
%%humdrum-veritas 1190756305
%%humdrum-veritas-data 3390307130
%%continueall 1
%%barnumbers 0
L: 1/8
M: 2/4
K: F
c c/ d/ f e/ d/ [I:setbarnb 1]| 
c> d A G | 
c c/ d/ f e/ d/ | 
c> d A G | 
Ac2f | 
d> c A G | 
A/ c/ G A/ c/ A/ D/ | 
F> DF2 | 
A A/ F/ G A | 
c c f A | 
G A G/ A/ G/ F/ | 
G/ F/D2F | 
G G/ c/ F D | 
C4 |]  



